X:8
T:Blackberry Blossom
M:4/4
L:1/8
C:Tradional
R:Reel
K:G
ef|:"G"gabg "D"fgaf|"C"efge "G"dBAG|"C"EFGE "G"DFGA|"A"BGBd "D"A2 ef|
|"G"gabg "D"fgaf|"C"efge "G"dBAG|"C"EFGE "G"DFGA|[1"D"BGAF "G"G2 ef:|][2"D"BGAF "G"G2GF]|
|:"Em"E2eB d2e2|E2eB dBAG|E2eB dBde|fbaf ed"B7"BG|
|"Em"E2eB dBde|"B7"BedB "Em"dBAG|"G"EGFA "C"GBAc|1 "G"BG"D"AF "G"G2GF:|2 "G"BG"D"AF "G"G4]|


